X:1
T:Scotland the Brave - #12
C:music: (Unknown ca. 1890)
C:words: Cliff Hanley (1922-1999)
N:Lyrics \251 1951 Kerrs Music, Berkeley Street, Glasgow, Scotland, UK
M:4/4
L:1/4
K:C
|"C""^Part A"C2 C3/2 D/2|E C E G|c2"F"c c|"C"c G"C7"E C|"F"F2 A F
w:v1~Hark where the night is fall-ing, Hark hear the pipes a call-ing, Loud-ly and
w:v2~High in the mis-ty moun-tains, Out by the pur-ple high-lands, Brave are the
|"C"E G"Am"E C|"D7"D2 G3/2 G/2|"G7"G F E (3DED|"C"C2 C3/2 D/2|E C E G
w:proud-ly call-ing down through the glen.| There where the hills are sleep-ing,
w:hearts that beat be-neath Scot-tish skies.| Wild are the winds to meet you,
|c2"F" c c|"C"c G "C7"E G|"F"F2 A F|"C"E G "Am"E C|"D7"D2 "G7"C B,
w:Now feel the blood a leap-ing, High as the spir-its of the old high-land
w:Staunch are the friends that greet you, Kind as the love that shines from fair maid-ens
|"C"C2 "^Part B"EG|"G7"d2 d3/2 d/2|d B G2|"C"c2 e3/2 c/2|c G E2|"Am"F2 A F
w:men.| ch~Tower-ing in gal-lant fame, Scot-land my moun-tain hame, High may your
w:eyes.|
|"Em"E G G E|"D7"D2 D3/2 E/2|"G7"D4|"C"C2 C3/2 D/2|E C E G
w:proud_ stan-dards glor-ious-ly wave. Land of my high en-dea-vour,
|c2 "F"c3/2 c/2|"C"cG"C7"EG|"F"F2AF|"C"EG"Am"EC|"Dm"D2"G7"CB,|"C"C4||
w:Land of the shin-ing ri-ver, Land of my heart for-ev-er, Scot-land the brave!
W:v2~High in the misty mountains
W:Out by the purple highlands
W:Brave are the hearts that beat beneath Scottish skies
W:Wild are the winds to meet you
W:Staunch are the friends that greet you
W:Kind as the love that shines from fair maidens eyes
W:
W:v3~Faroff in sunlit places,
W:Sad are the Scottish faces,
W:Yearnin' to feel the kiss of sweet Scottish rain.
W:Where tropic skies are beaming,
W:Love sets the heart a'dreaming,
